X: 43537
T: You Never Saw Her Equal
R: reel
M: 4/4
K: Gmajor
(Bc)||dBGB (3ABA GB|dBGB A2 (Bc)|dBGB (3ABA GB|cABG A2 (Bc)|
dBGB (3ABA GB|dBGB A2 (Bd)|gfga bagf|gedB A2 (Bd)||
(3efe de gedg|(3efe dB A2 (Bd)|(3efe de gedB|cABG A2 (Bd)|
(3efe de gedg|(3efe dB A2 (Bd)|(3efg (3fga gedB|cABG A2 (Bc)||

